X:2191
T:Gentleman Hill's Quickstep
O:england
R:Jig
M:6/8
K:G
D|\
GAB BcA | GBc def | gfe dBG | FAA A2D | \
GAB BcA | GBc def | gdB dBA | BGG G2 :|
|:d |\
ded gfe | cdc edc | Bcd ecA | GFA D2d |\
ded gfe | cdc edc | Bdg dBG | ADE FGA |\
GAB BcA | GBc def | gfe dBG | FAA A2D |\
GAB BcA | GBc def | gdB dBA | BGG G2 :|


